;FLAVOR:Marlin
;TIME:17520
;Filament used: 13.1836m
;Layer height: 0.2
;MINX:66
;MINY:65.061
;MINZ:0.2
;MAXX:154
;MAXY:156.061
;MAXZ:45
;Generated with Cura_SteamEngine 4.13.1
M140 S60
M105
M190 S60
M104 S200
M105
M109 S200
M82 ;absolute extrusion mode
; Ender 3 Custom Start G-code
G92 E0 ; Reset Extruder
G28 ; Home all axes
G1 Z2.0 F3000 ; Move Z Axis up little to prevent scratching of Heat Bed
G1 X0.1 Y20 Z0.3 F5000.0 ; Move to start position
G1 X0.1 Y200.0 Z0.3 F1500.0 E15 ; Draw the first line
G1 X0.4 Y200.0 Z0.3 F5000.0 ; Move to side a little
G1 X0.4 Y20 Z0.3 F1500.0 E30 ; Draw the second line
G92 E0 ; Reset Extruder
G1 Z2.0 F3000 ; Move Z Axis up little to prevent scratching of Heat Bed
G1 X5 Y20 Z0.3 F5000.0 ; Move over to prevent blob squish
G92 E0
G92 E0
G1 F1500 E-6.5
;LAYER_COUNT:225
;LAYER:0
M107
G0 F6000 X69.36 Y71.156 Z0.2
;TYPE:SKIRT
G1 F1500 E0
G1 F1200 X71.069 Y69.47 E0.07985
G1 X71.259 Y69.273 E0.08895
G1 X72.171 Y68.348 E0.13215
G1 X72.857 Y67.709 E0.16334
G1 X73.596 Y67.131 E0.19454
G1 X74.38 Y66.617 E0.22572
G1 X75.206 Y66.172 E0.25693
G1 X76.067 Y65.8 E0.28812
G1 X76.956 Y65.502 E0.31931
G1 X77.868 Y65.28 E0.35053
G1 X78.794 Y65.138 E0.38169
G1 X79.667 Y65.076 E0.4108
G1 X79.993 Y65.066 E0.42164
G1 X80.33 Y65.061 E0.43285
G1 X139.293 Y65.061 E2.39397
G1 X140.152 Y65.072 E2.42254
G1 X141.089 Y65.125 E2.45376
G1 X142.017 Y65.258 E2.48494
G1 X142.931 Y65.47 E2.51615
G1 X143.823 Y65.758 E2.54732
G1 X144.688 Y66.122 E2.57853
G1 X145.518 Y66.558 E2.60972
G1 X146.309 Y67.063 E2.64093
G1 X147.053 Y67.633 E2.6721
G1 X147.622 Y68.144 E2.69754
G1 X147.905 Y68.421 E2.71071
G1 X149.594 Y70.132 E2.79068
G1 X149.772 Y70.304 E2.79891
G1 X150.704 Y71.222 E2.84242
G1 X151.344 Y71.908 E2.87362
G1 X151.941 Y72.672 E2.90587
G1 X152.453 Y73.458 E2.93707
G1 X152.896 Y74.285 E2.96828
G1 X153.268 Y75.146 E2.99947
G1 X153.564 Y76.036 E3.03067
G1 X153.784 Y76.947 E3.06184
G1 X153.925 Y77.875 E3.09306
G1 X153.985 Y78.728 E3.1215
G1 X153.995 Y79.053 E3.13231
G1 X154 Y79.391 E3.14356
G1 X153.999 Y144.461 E5.30779
G1 X153.99 Y145.188 E5.33198
G1 X153.939 Y146.125 E5.36319
G1 X153.807 Y147.053 E5.39436
G1 X153.598 Y147.967 E5.42555
G1 X153.311 Y148.86 E5.45674
G1 X152.949 Y149.726 E5.48796
G1 X152.515 Y150.557 E5.51914
G1 X152.011 Y151.348 E5.55034
G1 X151.442 Y152.093 E5.58152
G1 X150.811 Y152.788 E5.61274
G1 X150.124 Y153.426 E5.64392
G1 X149.385 Y154.003 E5.67511
G1 X148.599 Y154.515 E5.70631
G1 X147.773 Y154.958 E5.73748
G1 X146.911 Y155.33 E5.76871
G1 X146.022 Y155.626 E5.79987
G1 X145.11 Y155.846 E5.83108
G1 X144.183 Y155.987 E5.86226
G1 X143.299 Y156.048 E5.89173
G1 X142.978 Y156.057 E5.90242
G1 X142.67 Y156.061 E5.91266
G1 X77.565 Y156.06 E8.07806
G1 X76.867 Y156.051 E8.10128
G1 X75.931 Y155.999 E8.13246
G1 X75.002 Y155.867 E8.16367
G1 X74.088 Y155.657 E8.19486
G1 X73.195 Y155.37 E8.22606
G1 X72.33 Y155.007 E8.25726
G1 X71.499 Y154.573 E8.28844
G1 X70.708 Y154.069 E8.31963
G1 X69.963 Y153.499 E8.35083
G1 X69.269 Y152.868 E8.38203
G1 X68.632 Y152.181 E8.41319
G1 X68.055 Y151.441 E8.4444
G1 X67.543 Y150.655 E8.4756
G1 X67.1 Y149.828 E8.50681
G1 X66.729 Y148.967 E8.53799
G1 X66.433 Y148.077 E8.56918
G1 X66.214 Y147.165 E8.60038
G1 X66.073 Y146.238 E8.63157
G1 X66.013 Y145.349 E8.6612
G1 X66.004 Y145.016 E8.67228
G1 X66 Y144.719 E8.68216
G1 X66.001 Y79.612 E10.84763
G1 X66.011 Y78.909 E10.87101
G1 X66.064 Y77.972 E10.90223
G1 X66.197 Y77.044 E10.93341
G1 X66.409 Y76.13 E10.96461
G1 X66.697 Y75.238 E10.99579
G1 X67.061 Y74.373 E11.027
G1 X67.497 Y73.543 E11.05819
G1 X68.002 Y72.752 E11.0894
G1 X68.572 Y72.008 E11.12057
G1 X69.083 Y71.439 E11.14601
G1 X69.36 Y71.156 E11.15918
G0 F6000 X69.64 Y71.441
G1 F1200 X71.373 Y69.731 E11.24016
G1 X71.544 Y69.554 E11.24834
G1 X72.456 Y68.629 E11.29155
G1 X73.13 Y68.002 E11.32216
G1 X73.856 Y67.436 E11.35278
G1 X74.629 Y66.935 E11.38342
G1 X75.442 Y66.503 E11.41404
G1 X76.289 Y66.143 E11.44465
G1 X77.165 Y65.858 E11.47529
G1 X78.061 Y65.651 E11.50588
G1 X78.973 Y65.521 E11.53652
G1 X79.679 Y65.476 E11.56005
G1 X80.005 Y65.466 E11.57089
G1 X80.33 Y65.461 E11.5817
G1 X139.293 Y65.461 E13.54282
G1 X140.147 Y65.472 E13.57123
G1 X141.066 Y65.525 E13.60185
G1 X141.977 Y65.658 E13.63247
G1 X142.873 Y65.869 E13.66308
G1 X143.747 Y66.157 E13.69369
G1 X144.594 Y66.52 E13.72434
G1 X145.405 Y66.955 E13.75495
G1 X146.176 Y67.459 E13.78558
G1 X146.9 Y68.027 E13.81619
G1 X147.345 Y68.432 E13.8362
G1 X147.62 Y68.701 E13.849
G1 X149.316 Y70.419 E13.92929
G1 X149.491 Y70.589 E13.93741
G1 X150.423 Y71.507 E13.98092
G1 X151.051 Y72.181 E14.01156
G1 X151.616 Y72.905 E14.0421
G1 X152.118 Y73.677 E14.07273
G1 X152.551 Y74.489 E14.10334
G1 X152.912 Y75.336 E14.13396
G1 X153.198 Y76.211 E14.16458
G1 X153.407 Y77.107 E14.19518
G1 X153.538 Y78.019 E14.22582
G1 X153.585 Y78.74 E14.24986
G1 X153.595 Y79.065 E14.26067
G1 X153.6 Y79.391 E14.27152
G1 X153.599 Y144.456 E16.43559
G1 X153.59 Y145.183 E16.45977
G1 X153.539 Y146.102 E16.49038
G1 X153.408 Y147.014 E16.52103
G1 X153.198 Y147.91 E16.55163
G1 X152.912 Y148.785 E16.58225
G1 X152.551 Y149.632 E16.61288
G1 X152.117 Y150.444 E16.6435
G1 X151.615 Y151.216 E16.67413
G1 X151.047 Y151.941 E16.70476
G1 X150.419 Y152.614 E16.73537
G1 X149.735 Y153.23 E16.76599
G1 X149 Y153.784 E16.7966
G1 X148.22 Y154.273 E16.82722
G1 X147.4 Y154.692 E16.85785
G1 X146.547 Y155.038 E16.88847
G1 X145.667 Y155.309 E16.91909
G1 X144.767 Y155.502 E16.94971
G1 X143.853 Y155.617 E16.98035
G1 X143.288 Y155.648 E16.99917
G1 X142.967 Y155.657 E17.00985
G1 X142.67 Y155.661 E17.01973
G1 X77.57 Y155.66 E19.18496
G1 X76.872 Y155.651 E19.20818
G1 X75.953 Y155.599 E19.23879
G1 X75.042 Y155.468 E19.2694
G1 X74.146 Y155.258 E19.30001
G1 X73.271 Y154.971 E19.33064
G1 X72.424 Y154.609 E19.36128
G1 X71.612 Y154.175 E19.3919
G1 X70.841 Y153.673 E19.4225
G1 X70.116 Y153.105 E19.45313
G1 X69.443 Y152.476 E19.48377
G1 X68.828 Y151.792 E19.51437
G1 X68.274 Y151.057 E19.54498
G1 X67.786 Y150.276 E19.57561
G1 X67.367 Y149.456 E19.60624
G1 X67.021 Y148.603 E19.63685
G1 X66.751 Y147.723 E19.66747
G1 X66.558 Y146.822 E19.69811
G1 X66.444 Y145.909 E19.72872
G1 X66.413 Y145.338 E19.74774
G1 X66.404 Y145.005 E19.75882
G1 X66.4 Y144.719 E19.76833
G1 X66.401 Y79.617 E21.93363
G1 X66.411 Y78.914 E21.95702
G1 X66.464 Y77.995 E21.98763
G1 X66.597 Y77.084 E22.01825
G1 X66.808 Y76.188 E22.04887
G1 X67.096 Y75.314 E22.07948
G1 X67.459 Y74.467 E22.11013
G1 X67.894 Y73.656 E22.14074
G1 X68.398 Y72.885 E22.17137
G1 X68.966 Y72.161 E22.20198
G1 X69.371 Y71.716 E22.22199
G1 X69.64 Y71.441 E22.23479
G0 F6000 X69.921 Y71.726
G1 F1200 X71.643 Y70.027 E22.31524
G1 X71.829 Y69.835 E22.32414
G1 X72.741 Y68.91 E22.36734
G1 X73.403 Y68.295 E22.39739
G1 X74.116 Y67.742 E22.4274
G1 X74.876 Y67.254 E22.45744
G1 X75.676 Y66.835 E22.48748
G1 X76.51 Y66.488 E22.51753
G1 X77.371 Y66.217 E22.54755
G1 X78.253 Y66.022 E22.57759
G1 X79.149 Y65.907 E22.60764
G1 X79.691 Y65.876 E22.62569
G1 X80.017 Y65.866 E22.63654
G1 X80.33 Y65.861 E22.64695
G1 X139.293 Y65.861 E24.60807
G1 X140.141 Y65.872 E24.63628
G1 X141.043 Y65.925 E24.66633
G1 X141.936 Y66.057 E24.69635
G1 X142.814 Y66.268 E24.72639
G1 X143.67 Y66.556 E24.75643
G1 X144.497 Y66.918 E24.78645
G1 X145.289 Y67.352 E24.81649
G1 X146.04 Y67.854 E24.84653
G1 X147.068 Y68.72 E24.89124
G1 X147.335 Y68.982 E24.90368
G1 X149.038 Y70.708 E24.98433
G1 X149.211 Y70.874 E24.9923
G1 X150.143 Y71.792 E25.03581
G1 X150.757 Y72.454 E25.06585
G1 X151.29 Y73.137 E25.09466
G1 X151.782 Y73.895 E25.12472
G1 X152.205 Y74.693 E25.15476
G1 X152.556 Y75.525 E25.18479
G1 X152.831 Y76.385 E25.21482
G1 X153.03 Y77.266 E25.24486
G1 X153.15 Y78.161 E25.2749
G1 X153.185 Y78.752 E25.29459
G1 X153.195 Y79.077 E25.3054
G1 X153.2 Y79.391 E25.31585
G1 X153.199 Y144.451 E27.47975
G1 X153.19 Y145.178 E27.50393
G1 X153.139 Y146.08 E27.53398
G1 X153.008 Y146.974 E27.56403
G1 X152.799 Y147.852 E27.59405
G1 X152.513 Y148.709 E27.6241
G1 X152.152 Y149.537 E27.65414
G1 X151.72 Y150.329 E27.68415
G1 X151.219 Y151.081 E27.7142
G1 X150.653 Y151.785 E27.74425
G1 X150.028 Y152.436 E27.77426
G1 X149.347 Y153.03 E27.80432
G1 X148.616 Y153.561 E27.83437
G1 X147.842 Y154.025 E27.86439
G1 X147.029 Y154.419 E27.89443
G1 X146.185 Y154.739 E27.92446
G1 X145.315 Y154.984 E27.95452
G1 X144.428 Y155.15 E27.98453
G1 X143.277 Y155.248 E28.02295
G1 X142.956 Y155.257 E28.03363
G1 X142.67 Y155.261 E28.04315
G1 X77.575 Y155.26 E30.20822
G1 X76.877 Y155.251 E30.23143
G1 X75.976 Y155.2 E30.26145
G1 X75.082 Y155.068 E30.29151
G1 X74.204 Y154.859 E30.32152
G1 X73.347 Y154.572 E30.35158
G1 X72.52 Y154.211 E30.3816
G1 X71.727 Y153.778 E30.41165
G1 X70.976 Y153.277 E30.44167
G1 X70.272 Y152.711 E30.47172
G1 X69.621 Y152.085 E30.50176
G1 X69.028 Y151.404 E30.53179
G1 X68.498 Y150.673 E30.56182
G1 X68.034 Y149.898 E30.59186
G1 X67.64 Y149.085 E30.62191
G1 X67.32 Y148.241 E30.65193
G1 X67.076 Y147.371 E30.68199
G1 X66.91 Y146.483 E30.71203
G1 X66.813 Y145.328 E30.75059
G1 X66.804 Y144.995 E30.76166
G1 X66.8 Y144.719 E30.77085
G1 X66.801 Y79.623 E32.93595
G1 X66.811 Y78.92 E32.95933
G1 X66.864 Y78.018 E32.98938
G1 X66.996 Y77.125 E33.01941
G1 X67.207 Y76.247 E33.04944
G1 X67.495 Y75.391 E33.07948
G1 X67.857 Y74.564 E33.10951
G1 X68.291 Y73.772 E33.13954
G1 X68.793 Y73.021 E33.16959
G1 X69.659 Y71.993 E33.2143
G1 X69.921 Y71.726 E33.22674
G1 F1500 E26.72674
;MESH:v2.stl
G0 F6000 X77.42 Y78.396
G0 X77.42 Y79.481
G0 X77.782 Y144.279
G0 X142.4 Y144.461
;TYPE:WALL-INNER
G1 F1500 E33.22674
G1 F1200 X77.6 Y144.461 E35.38199
G1 X77.6 Y79.661 E37.53725
G1 X80.6 Y79.661 E37.63703
G1 X80.6 Y76.661 E37.73681
G1 X139.4 Y76.661 E39.69251
G1 X139.4 Y79.661 E39.79229
G1 X142.4 Y79.661 E39.89207
G1 X142.4 Y144.461 E42.04733
G0 F6000 X142.8 Y144.861
;TYPE:WALL-OUTER
G1 F1200 X77.2 Y144.861 E44.22919
G1 X77.2 Y79.261 E46.41106
G1 X80.2 Y79.261 E46.51084
G1 X80.2 Y76.261 E46.61062
G1 X139.8 Y76.261 E48.59292
G1 X139.8 Y79.261 E48.6927
G1 X142.8 Y79.261 E48.79248
G1 X142.8 Y144.861 E50.97435
G0 F6000 X142.53 Y144.591
G0 X142.29 Y144.071
G0 X142.01 Y144.071
;TYPE:SKIN
G1 F1200 X77.99 Y144.071 E53.10366
G1 X77.99 Y80.051 E55.23297
G1 X80.99 Y80.051 E55.33275
G1 X80.99 Y77.051 E55.43253
G1 X139.01 Y77.051 E57.36229
G1 X139.01 Y80.051 E57.46207
G1 X142.01 Y80.051 E57.56185
G1 X142.01 Y144.071 E59.69116
G1 F1500 E53.19116
G0 F6000 X142.29 Y144.071
G0 X142.29 Y80.755
G1 F1500 E59.69116
G0 F6000 X141.849 Y80.755
G1 F1200 X141.304 Y80.21 E59.7168
G0 F6000 X140.738 Y80.21
G1 F1200 X141.849 Y81.321 E59.76906
G0 F6000 X141.849 Y81.887
G1 F1200 X140.173 Y80.21 E59.84791
G0 F6000 X139.607 Y80.21
G1 F1200 X141.849 Y82.452 E59.95337
G0 F6000 X141.849 Y83.018
G1 F1200 X139.041 Y80.21 E60.08545
G0 F6000 X138.849 Y80.018
G1 F1200 X136.042 Y77.211 E60.21748
G0 F6000 X135.476 Y77.211
G1 F1200 X141.849 Y83.584 E60.51725
G0 F6000 X141.849 Y84.149
G1 F1200 X134.911 Y77.211 E60.84359
G0 F6000 X134.345 Y77.211
G1 F1200 X141.849 Y84.715 E61.19656
G0 F6000 X141.849 Y85.281
G1 F1200 X133.779 Y77.211 E61.57614
G0 F6000 X133.213 Y77.211
G1 F1200 X141.849 Y85.847 E61.98235
G0 F6000 X141.849 Y86.412
G1 F1200 X132.648 Y77.211 E62.41514
G0 F6000 X132.082 Y77.211
G1 F1200 X141.849 Y86.978 E62.87455
G0 F6000 X141.849 Y87.544
G1 F1200 X131.516 Y77.211 E63.36058
G0 F6000 X130.951 Y77.211
G1 F1200 X141.849 Y88.109 E63.87319
G0 F6000 X141.849 Y88.675
G1 F1200 X130.385 Y77.211 E64.41242
G0 F6000 X129.819 Y77.211
G1 F1200 X141.849 Y89.241 E64.97828
G0 F6000 X141.849 Y89.806
G1 F1200 X129.254 Y77.211 E65.57071
G0 F6000 X128.688 Y77.211
G1 F1200 X141.849 Y90.372 E66.18976
G0 F6000 X141.849 Y90.938
G1 F1200 X128.122 Y77.211 E66.83544
G0 F6000 X127.557 Y77.211
G1 F1200 X141.849 Y91.503 E67.50769
G0 F6000 X141.849 Y92.069
G1 F1200 X126.991 Y77.211 E68.20656
G0 F6000 X126.425 Y77.211
G1 F1200 X141.849 Y92.635 E68.93206
G0 F6000 X141.849 Y93.2
G1 F1200 X125.86 Y77.211 E69.68414
G0 F6000 X125.294 Y77.211
G1 F1200 X141.849 Y93.766 E70.46283
G0 F6000 X141.849 Y94.332
G1 F1200 X124.728 Y77.211 E71.26815
G0 F6000 X124.163 Y77.211
G1 F1200 X141.849 Y94.897 E72.10005
G0 F6000 X141.849 Y95.463
G1 F1200 X123.597 Y77.211 E72.95856
G0 F6000 X123.031 Y77.211
G1 F1200 X141.849 Y96.029 E73.84371
G0 F6000 X141.849 Y96.595
G1 F1200 X122.465 Y77.211 E74.75547
G0 F6000 X121.9 Y77.211
G1 F1200 X141.849 Y97.16 E75.69381
G0 F6000 X141.849 Y97.726
G1 F1200 X121.334 Y77.211 E76.65877
G0 F6000 X120.768 Y77.211
G1 F1200 X141.849 Y98.292 E77.65036
G0 F6000 X141.849 Y98.857
G1 F1200 X120.203 Y77.211 E78.66852
G0 F6000 X119.637 Y77.211
G1 F1200 X141.849 Y99.423 E79.7133
G0 F6000 X141.849 Y99.989
G1 F1200 X119.071 Y77.211 E80.78471
G0 F6000 X118.506 Y77.211
G1 F1200 X141.849 Y100.554 E81.88269
G0 F6000 X141.849 Y101.12
G1 F1200 X117.94 Y77.211 E83.0073
G0 F6000 X117.374 Y77.211
G1 F1200 X141.849 Y101.686 E84.15853
G0 F6000 X141.849 Y102.251
G1 F1200 X116.809 Y77.211 E85.33633
G0 F6000 X116.243 Y77.211
G1 F1200 X141.849 Y102.817 E86.54076
G0 F6000 X141.849 Y103.383
G1 F1200 X115.677 Y77.211 E87.77181
G0 F6000 X115.112 Y77.211
G1 F1200 X141.849 Y103.948 E89.02944
G0 F6000 X141.849 Y104.514
G1 F1200 X114.546 Y77.211 E90.31369
G0 F6000 X113.98 Y77.211
G1 F1200 X141.849 Y105.08 E91.62456
G0 F6000 X141.849 Y105.645
G1 F1200 X113.414 Y77.211 E92.96203
G0 F6000 X112.849 Y77.211
G1 F1200 X141.849 Y106.211 E94.3261
G0 F6000 X141.849 Y106.777
G1 F1200 X112.283 Y77.211 E95.7168
G0 F6000 X111.717 Y77.211
G1 F1200 X141.849 Y107.343 E97.13411
G0 F6000 X141.849 Y107.908
G1 F1200 X111.152 Y77.211 E98.57801
G0 F6000 X110.586 Y77.211
G1 F1200 X141.849 Y108.474 E100.04852
G0 F6000 X141.849 Y109.04
G1 F1200 X110.02 Y77.211 E101.54566
G0 F6000 X109.455 Y77.211
G1 F1200 X141.849 Y109.605 E103.06938
G0 F6000 X141.849 Y110.171
G1 F1200 X108.889 Y77.211 E104.61971
G0 F6000 X108.323 Y77.211
G1 F1200 X141.849 Y110.737 E106.19667
G0 F6000 X141.849 Y111.302
G1 F1200 X107.758 Y77.211 E107.80021
G0 F6000 X107.192 Y77.211
G1 F1200 X141.849 Y111.868 E109.43037
G0 F6000 X141.849 Y112.434
G1 F1200 X106.626 Y77.211 E111.08715
G0 F6000 X106.061 Y77.211
G1 F1200 X141.849 Y112.999 E112.77051
G0 F6000 X141.849 Y113.565
G1 F1200 X105.495 Y77.211 E114.48049
G0 F6000 X104.929 Y77.211
G1 F1200 X141.849 Y114.131 E116.21709
G0 F6000 X141.849 Y114.696
G1 F1200 X104.364 Y77.211 E117.98027
G0 F6000 X103.798 Y77.211
G1 F1200 X141.849 Y115.262 E119.77007
G0 F6000 X141.849 Y115.828
G1 F1200 X103.232 Y77.211 E121.5865
G0 F6000 X102.666 Y77.211
G1 F1200 X141.849 Y116.394 E123.42955
G0 F6000 X141.849 Y116.959
G1 F1200 X102.101 Y77.211 E125.29917
G0 F6000 X101.535 Y77.211
G1 F1200 X141.849 Y117.525 E127.19542
G0 F6000 X141.849 Y118.091
G1 F1200 X100.969 Y77.211 E129.11829
G0 F6000 X100.404 Y77.211
G1 F1200 X141.849 Y118.656 E131.06773
G0 F6000 X141.849 Y119.222
G1 F1200 X99.838 Y77.211 E133.0438
G0 F6000 X99.272 Y77.211
G1 F1200 X141.849 Y119.788 E135.04649
G0 F6000 X141.849 Y120.353
G1 F1200 X98.707 Y77.211 E137.07576
G0 F6000 X98.141 Y77.211
G1 F1200 X141.849 Y120.919 E139.13165
G0 F6000 X141.849 Y121.485
G1 F1200 X97.575 Y77.211 E141.21416
G0 F6000 X97.01 Y77.211
G1 F1200 X141.849 Y122.05 E143.32325
G0 F6000 X141.849 Y122.616
G1 F1200 X96.444 Y77.211 E145.45897
G0 F6000 X95.878 Y77.211
G1 F1200 X141.849 Y123.182 E147.6213
G0 F6000 X141.849 Y123.747
G1 F1200 X95.313 Y77.211 E149.81021
G0 F6000 X94.747 Y77.211
G1 F1200 X141.849 Y124.313 E152.02575
G0 F6000 X141.849 Y124.879
G1 F1200 X94.181 Y77.211 E154.2679
G0 F6000 X93.615 Y77.211
G1 F1200 X141.849 Y125.444 E156.53666
G0 F6000 X141.849 Y126.01
G1 F1200 X93.05 Y77.211 E158.83201
G0 F6000 X92.484 Y77.211
G1 F1200 X141.849 Y126.576 E161.15399
G0 F6000 X141.849 Y127.142
G1 F1200 X91.918 Y77.211 E163.50259
G0 F6000 X91.353 Y77.211
G1 F1200 X141.849 Y127.707 E165.87777
G0 F6000 X141.849 Y128.273
G1 F1200 X90.787 Y77.211 E168.27957
G0 F6000 X90.221 Y77.211
G1 F1200 X141.849 Y128.839 E170.70799
G0 F6000 X141.849 Y129.404
G1 F1200 X89.656 Y77.211 E173.16299
G0 F6000 X89.09 Y77.211
G1 F1200 X141.849 Y129.97 E175.64461
G0 F6000 X141.849 Y130.536
G1 F1200 X88.524 Y77.211 E178.15286
G0 F6000 X87.959 Y77.211
G1 F1200 X141.849 Y131.101 E180.68768
